X: 7332
T: Cliffs Of Dooneen, The
R: waltz
M: 3/4
K: Emixolydian
|:E FA|B3 c e2|c2 B3 A|F2 E2 D2|E4 cd|
e3 f e2|c2 E2 FA|B3 A B2|c4 cd|
e2 f3 e|c2 E2 A2|B2 c>B AB|c4 (3dcB|
A2 AB ce|c2 (3BcB A2|FE- E3 E|E3:|

